X: 125004
T: LOGIE O BUCHAN
R: Waltz.
%R: waltz
B: James Kerr "Merry Melodies" v.1 p.25 s.0 #4
Z: 2017 John Chambers <jc:trillian.mit.edu>
M: 3/4
L: 1/4
K: D
|: A/G/ |\
F>GA | Afe | dBB | B2 A/G/ |\
F>GA | Ade | fdd | d2 ::\
d/e/ |\
fef | afe | dBc | d2 d/e/ |\
fgf | ede | "_D.C. to Allegro."fdB | B2 :|

%%sep 1 1 500
%%sep 1 1 500

